app/static/icons/shoes.svg

<svg width="61" height="38" viewBox="0 0 61 38" fill="none" xmlns="http://www.w3.org/2000/svg">
<path d="M19.0308 11.9364C19.0308 12.5054 19.4963 12.9709 20.0652 12.9709H20.4144C20.6342 12.9709 20.854 12.8933 21.0351 12.764L27.4877 7.92777L26.6083 5.72949L19.4446 11.1088C19.1859 11.3028 19.0308 11.6131 19.0308 11.9364Z" fill="white"/>
<path d="M28.3413 25.3848C28.3413 25.9537 28.8068 26.4192 29.3758 26.4192H29.7249C29.9448 26.4192 30.1646 26.3417 30.3456 26.2123L37.5094 20.846C36.8758 20.3805 36.2551 19.902 35.6603 19.3848L28.7551 24.5572C28.4965 24.7511 28.3413 25.0615 28.3413 25.3848Z" fill="white"/>
<path d="M21.9144 14.639C19.6774 16.2554 17.0265 17.1088 14.2722 17.1088H8.50494C7.26356 17.1088 6.03511 16.9148 4.84546 16.5786C5.46615 18.0916 6.95322 19.1778 8.68598 19.1778H9.62994C11.9963 19.1778 14.117 20.4967 15.1774 22.6045L19.7161 31.695C20.1041 31.6304 20.492 31.5916 20.8929 31.5916H29.5825C31.0049 31.5916 32.3886 32.0054 33.5782 32.7942C34.4187 33.3631 35.4015 33.6605 36.423 33.6605H50.5825C51.8756 33.6605 53.117 33.0398 53.8929 32.0054C55.0567 30.4536 56.9187 29.5226 58.8584 29.5226H59.7765C58.8325 27.6864 56.9187 26.4192 54.7205 26.4192C49.1343 26.4192 43.8455 24.8416 39.3196 22.0614L31.5739 27.8674C31.0437 28.2683 30.3843 28.4881 29.7118 28.4881H29.3756C27.6687 28.4881 26.2722 27.0916 26.2722 25.3847C26.2722 24.4148 26.7377 23.4838 27.5136 22.9019L34.1084 17.9493C33.7593 17.6002 33.4101 17.2511 33.0868 16.889L26.3886 21.6993C25.8584 22.0743 25.2377 22.2812 24.5782 22.2812H24.2032C22.4963 22.2812 21.0998 20.8847 21.0998 19.1778C21.0998 18.2079 21.5653 17.2769 22.3411 16.695L29.2205 11.5355C28.9101 10.9924 28.6127 10.4364 28.3411 9.86743L22.2636 14.4192C22.1601 14.4967 22.0437 14.5743 21.9144 14.639Z" fill="white"/>
<path d="M23.1687 19.1778C23.1687 19.7468 23.6342 20.2123 24.2032 20.2123H24.5782C24.798 20.2123 25.0049 20.1476 25.1859 20.0183L31.7549 15.3114C31.2506 14.6649 30.7722 14.0054 30.3196 13.3071L23.5954 18.3502C23.3239 18.5442 23.1687 18.8545 23.1687 19.1778Z" fill="white"/>
<path d="M25.8067 3.75109L24.7981 1.20368C24.6429 0.81575 24.2679 0.557129 23.8412 0.557129H19.0308C18.4619 0.557129 17.9963 1.02265 17.9963 1.59161V9.58299C18.061 9.53127 18.1386 9.5054 18.2032 9.45368L25.8067 3.75109Z" fill="white"/>
<path d="M60.3843 31.5916H58.8584C57.5653 31.5916 56.3239 32.2122 55.5481 33.2467C54.3843 34.7984 52.5222 35.7295 50.5826 35.7295H36.4102C34.9877 35.7295 33.6041 35.3157 32.4145 34.5269C31.5739 33.9579 30.5912 33.6605 29.5696 33.6605H20.88C19.8584 33.6605 18.8757 33.9579 18.0352 34.5269C16.8455 35.3157 15.4748 35.7295 14.0395 35.7295H10.2377C8.29809 35.7295 6.43602 34.7984 5.27222 33.2467C4.49636 32.2122 3.25498 31.5916 1.96188 31.5916H0.410156V32.626C0.410156 35.4838 2.72481 37.7984 5.58257 37.7984H15.0998C16.1214 37.7984 17.1041 37.501 17.9446 36.9321C19.1343 36.1433 20.505 35.7295 21.9403 35.7295H28.561C29.9834 35.7295 31.3671 36.1433 32.5567 36.9321C33.3972 37.501 34.38 37.7984 35.4015 37.7984H54.7205C57.8627 37.7984 60.4102 35.251 60.4102 32.1088C60.4102 31.9278 60.3972 31.7597 60.3843 31.5916Z" fill="white"/>
<path d="M6.9274 32.0054C7.70326 33.0399 8.94464 33.6606 10.2377 33.6606H14.0653C15.0869 33.6606 16.0696 33.3632 16.9102 32.7942C17.1688 32.6132 17.4533 32.471 17.7377 32.3287L13.3412 23.5227C12.6171 22.1261 11.2076 21.2468 9.62998 21.2468H8.68602C5.46619 21.2468 2.81533 18.777 2.50498 15.6347C1.76792 15.2468 1.05671 14.8072 0.410156 14.2899V29.5227H1.96188C3.90154 29.5227 5.76361 30.4537 6.9274 32.0054Z" fill="white"/>
<path d="M8.50498 15.0398H14.2722C15.6041 15.0398 16.9102 14.7942 18.1257 14.3416C17.5438 13.8631 17.13 13.1907 17.0136 12.4148C16.005 12.7769 14.9317 12.9709 13.8584 12.9709H9.00929C6.52654 12.9709 4.18602 12.0011 2.4274 10.2424L2.34981 10.1648C2.15585 9.97088 1.88429 9.86743 1.61274 9.86743H1.44464C0.875673 9.86743 0.410156 10.3329 0.410156 10.9019V11.0829C0.410156 11.3545 0.513605 11.6261 0.70757 11.82C2.7636 13.8631 5.60843 15.0398 8.50498 15.0398Z" fill="white"/>
</svg>

<svg xmlns="http://www.w3.org/2000/svg" width="61" height="38" fill="#fff"><path d="M19.03 11.936a1.04 1.04 0 0 0 1.034 1.034h.35a1.08 1.08 0 0 0 .62-.207l6.453-4.836-.88-2.198-7.164 5.38a1.04 1.04 0 0 0-.414.828zm9.3 13.45a1.04 1.04 0 0 0 1.035 1.034h.35a1.08 1.08 0 0 0 .62-.207l7.164-5.366-1.85-1.46-6.905 5.172a1.04 1.04 0 0 0-.414.828zM21.914 14.64a12.99 12.99 0 0 1-7.642 2.47H8.505c-1.24 0-2.47-.194-3.66-.53.62 1.513 2.108 2.6 3.84 2.6h.944a6.18 6.18 0 0 1 5.547 3.427l4.54 9.1c.388-.065.776-.103 1.177-.103h8.7a7.21 7.21 0 0 1 3.996 1.203 5.05 5.05 0 0 0 2.845.866h14.16a4.13 4.13 0 0 0 3.3-1.655 6.25 6.25 0 0 1 4.966-2.483h.918c-.944-1.836-2.858-3.103-5.056-3.103a29.36 29.36 0 0 1-15.4-4.358l-7.746 5.806a3.1 3.1 0 0 1-1.862.621h-.336c-1.707 0-3.103-1.396-3.103-3.103 0-.97.465-1.9 1.24-2.483l6.595-4.953-1.022-1.06-6.698 4.8c-.53.375-1.15.582-1.8.582h-.375c-1.707 0-3.103-1.396-3.103-3.103a3.13 3.13 0 0 1 1.24-2.483l6.88-5.16a25.56 25.56 0 0 1-.879-1.668l-6.078 4.552a2.31 2.31 0 0 1-.349.22zm1.256 4.538a1.04 1.04 0 0 0 1.034 1.034h.375a1.03 1.03 0 0 0 .608-.194l6.57-4.707-1.435-2.004-6.724 5.043a1.02 1.02 0 0 0-.427.828zM25.807 3.75l-1-2.547a1.03 1.03 0 0 0-.957-.647h-4.8a1.04 1.04 0 0 0-1.034 1.034v8c.065-.052.142-.078.207-.13l7.604-5.703zm34.577 27.842h-1.526a4.13 4.13 0 0 0-3.3 1.655 6.25 6.25 0 0 1-4.965 2.483H36.4a7.21 7.21 0 0 1-3.996-1.203 5.05 5.05 0 0 0-2.845-.866h-8.7a5.05 5.05 0 0 0-2.845.866 7.18 7.18 0 0 1-3.996 1.203h-3.802a6.25 6.25 0 0 1-4.965-2.483 4.16 4.16 0 0 0-3.3-1.655H.4v1.034a5.17 5.17 0 0 0 5.172 5.172H15.1a5.05 5.05 0 0 0 2.845-.866 7.18 7.18 0 0 1 3.996-1.203h6.62a7.21 7.21 0 0 1 3.996 1.203 5.05 5.05 0 0 0 2.845.866h19.32a5.69 5.69 0 0 0 5.69-5.69 6.55 6.55 0 0 0-.026-.517zm-53.457.413a4.16 4.16 0 0 0 3.3 1.655h3.828a5.05 5.05 0 0 0 2.845-.866c.26-.18.543-.323.828-.465l-4.396-8.806c-.724-1.397-2.134-2.276-3.7-2.276h-.944a6.23 6.23 0 0 1-6.181-5.612A14.84 14.84 0 0 1 .4 14.3v15.233h1.552a6.25 6.25 0 0 1 4.966 2.483zM8.505 15.04h5.767c1.332 0 2.638-.246 3.853-.698-.582-.48-.996-1.15-1.112-1.927a9.37 9.37 0 0 1-3.155.556H9a9.25 9.25 0 0 1-6.582-2.73l-.078-.078c-.194-.194-.466-.297-.737-.297h-.168A1.04 1.04 0 0 0 .41 10.902v.18c0 .272.103.543.297.737 2.056 2.043 4.9 3.22 7.797 3.22z"/></svg>
